svg/card_account_details_outline.svg

<svg xmlns="http://www.w3.org/2000/svg" viewBox="0 0 24 24"><path d="M22 3H2c-1.09.04-1.96.91-2 2v14c.04 1.09.91 1.96 2 2h20c1.09-.04 1.96-.91 2-2V5a2.074 2.074 0 0 0-2-2m0 16H2V5h20zm-8-2v-1.25c0-1.66-3.34-2.5-5-2.5s-5 .84-5 2.5V17zM9 7a2.5 2.5 0 0 0-2.5 2.5A2.5 2.5 0 0 0 9 12a2.5 2.5 0 0 0 2.5-2.5A2.5 2.5 0 0 0 9 7m5 0v1h6V7zm0 2v1h6V9zm0 2v1h4v-1z"/></svg>

<?xml version="1.0" encoding="UTF-8"?><!DOCTYPE svg PUBLIC "-//W3C//DTD SVG 1.1//EN" "http://www.w3.org/Graphics/SVG/1.1/DTD/svg11.dtd"><svg xmlns="http://www.w3.org/2000/svg" xmlns:xlink="http://www.w3.org/1999/xlink" version="1.1" id="mdi-card-account-details-outline" width="24" height="24" viewBox="0 0 24 24"><path d="M22,3H2C0.91,3.04 0.04,3.91 0,5V19C0.04,20.09 0.91,20.96 2,21H22C23.09,20.96 23.96,20.09 24,19V5C23.96,3.91 23.09,3.04 22,3M22,19H2V5H22V19M14,17V15.75C14,14.09 10.66,13.25 9,13.25C7.34,13.25 4,14.09 4,15.75V17H14M9,7A2.5,2.5 0 0,0 6.5,9.5A2.5,2.5 0 0,0 9,12A2.5,2.5 0 0,0 11.5,9.5A2.5,2.5 0 0,0 9,7M14,7V8H20V7H14M14,9V10H20V9H14M14,11V12H18V11H14" /></svg>
